multiqc/multiqc_icon_color.svg

<?xml version="1.0" encoding="utf-8"?>
<!-- Generator: Adobe Illustrator 28.3.0, SVG Export Plug-In . SVG Version: 6.00 Build 0)  -->
<svg version="1.1" id="Layer_1" xmlns="http://www.w3.org/2000/svg" xmlns:xlink="http://www.w3.org/1999/xlink" x="0px" y="0px"
	 viewBox="0 0 500 500" style="enable-background:new 0 0 500 500;" xml:space="preserve">
<style type="text/css">
	.st0{fill:#F18046;}
</style>
<path class="st0" d="M171.2,245c2.6-39.5,34.3-71.1,73.8-73.5v-46.1C180,128,127.8,180.1,125.1,245H171.2z"/>
<path class="st0" d="M244.7,329.4c-39.5-2.6-71.1-34.3-73.5-73.8h-46.1c2.6,65,54.7,117.2,119.6,119.9V329.4z"/>
<path class="st0" d="M255.5,171.5c39.5,2.6,71.1,34.3,73.5,73.8h46.1c-2.6-65-54.7-117.2-119.6-119.9V171.5z"/>
<path class="st0" d="M375.1,329.4c-39.5-2.6-71.1-34.3-73.5-73.8h-46.1c2.6,65,54.7,117.2,119.6,119.9V329.4z"/>
</svg>

<svg width="500" height="500" viewBox="0 0 500 500" fill="none" xmlns="http://www.w3.org/2000/svg">
<path d="M171.2 245C173.8 205.5 205.5 173.9 245 171.5V125.4C180 128 127.8 180.1 125.1 245H171.2Z" fill="#201637"/>
<path d="M244.7 329.4C205.2 326.8 173.6 295.1 171.2 255.6H125.1C127.7 320.6 179.8 372.8 244.7 375.5V329.4Z" fill="#201637"/>
<path d="M255.5 171.5C295 174.1 326.6 205.8 329 245.3H375.1C372.5 180.3 320.4 128.1 255.5 125.4V171.5Z" fill="#201637"/>
<path d="M375.1 329.4C335.6 326.8 304 295.1 301.6 255.6H255.5C258.1 320.6 310.2 372.8 375.1 375.5V329.4Z" fill="#201637"/>
</svg>
